icon/pk/transport.svg

<svg viewBox="0 0 48 48" fill="none" xmlns="http://www.w3.org/2000/svg" height="1em" width="1em">
  <rect x="16" y="12" width="28" height="18" rx="3" fill="#2F88FF" stroke="black" stroke-width="4" stroke-linejoin="round"/>
  <path d="M24 18V24" stroke="white" stroke-width="4" stroke-linecap="round"/>
  <path d="M36 18V24" stroke="white" stroke-width="4" stroke-linecap="round"/>
  <path d="M36 12V6H24V12" stroke="black" stroke-width="4" stroke-linecap="round" stroke-linejoin="round"/>
  <path d="M44 36H12C10.8954 36 10 35.1046 10 34V11C10 9.89543 9.10457 9 8 9H4" stroke="black" stroke-width="4" stroke-linecap="round" stroke-linejoin="round"/>
  <path d="M19 42C17.3431 42 16 40.6569 16 39V36H22V39C22 40.6569 20.6569 42 19 42Z" fill="#2F88FF" stroke="black" stroke-width="4" stroke-linecap="round" stroke-linejoin="round"/>
  <path d="M37 42C35.3431 42 34 40.6569 34 39V36H40V39C40 40.6569 38.6569 42 37 42Z" fill="#2F88FF" stroke="black" stroke-width="4" stroke-linecap="round" stroke-linejoin="round"/>
</svg>

<svg width="48" height="48" fill="none" xmlns="http://www.w3.org/2000/svg"><rect x="16" y="12" width="28" height="18" rx="3" fill="#2F88FF" stroke="#000" stroke-width="4" stroke-linejoin="round"/><path d="M24 18v6M36 18v6" stroke="#fff" stroke-width="4" stroke-linecap="round"/><path d="M36 12V6H24v6M44 36H12a2 2 0 0 1-2-2V11a2 2 0 0 0-2-2H4" stroke="#000" stroke-width="4" stroke-linecap="round" stroke-linejoin="round"/><path d="M19 42a3 3 0 0 1-3-3v-3h6v3a3 3 0 0 1-3 3ZM37 42a3 3 0 0 1-3-3v-3h6v3a3 3 0 0 1-3 3Z" fill="#2F88FF" stroke="#000" stroke-width="4" stroke-linecap="round" stroke-linejoin="round"/></svg>
